X:1
T:Goldberg Variations: Variation VII
T:BWV 988
T:J. S. Bach
%%score { 1 | 2 }
L:1/8
M:6/8
K:G
V:1 treble nm="Harp"
V:2 bass 
V:1
 B>AB D>GB | B/4A/4B/4A/4B/4A/4G/A d3 | g/4f/4gf/g A>eg | g/4f/4g/4f/4g/4f/4e/f d3- | %4
 d2 e/4f/4g/4a/4 b>gd | e2 f/4g/4a/4b/4 c'>ae | f>dg A>Bc |{c} B3- B>AG/F/ | G2 d g/4f/4g/- g2- | %9
 ga/g/f/e/ f/4e/4f/- f2- | f>gf e>^cd | d/4^c/4d/4c/4d/4c/4d/e A3- | A2 B/4^c/4d/4e/4 f>dA | %13
 B2 ^c/4d/4e/4f/4 g>eB |{B} ^c>Aa d>ec |{^c} d3- d3 | B>AB D>GB | B/4A/4B/4A/4B/4A/4G/A d3 | %18
 g/4f/4gf/g A>eg | g/4f/4g/4f/4g/4f/4e/f d3- | d2 e/4f/4g/4a/4 b>gd | e2 f/4g/4a/4b/4 c'>ae | %22
 f>dg A>Bc |{c} B3- B>AG/F/ | G2 d g/4f/4g/- g2- | ga/g/f/e/ f/4e/4f/- f2- | f>gf e>^cd | %27
 d/4^c/4d/4c/4d/4c/4d/e A3- | A2 B/4^c/4d/4e/4 f>dA | B2 ^c/4d/4e/4f/4 g>eB |{B} ^c>Aa d>ec | %31
{^c} d3- d3 | f>ef A>df | g>fg b3 | e2 f/4g/4a/4b/4 c'/b/a/g/f/e/ | e/4^d/4e/4d/4e/4d/4^c/d B3- | %36
 B3/2b3/2 g>^de | c>e^g a2 b/4a/4=g/4f/4 | g>ab e>f^d | e>BG E2 B | B>^GA de/d/c/B/ | c>ed e>gf | %42
 ga/g/f/e/ a>bg | g/4f/4g/4f/4g/4f/4e/f d3- | d2 e/4f/4g/4a/4 b>gd | e2 f/4g/4a/4b/4 c'>ae | %46
 f>dd' g>af | g3- g3 | f>ef A>df | g>fg b3 | e2 f/4g/4a/4b/4 c'/b/a/g/f/e/ | %51
 e/4^d/4e/4d/4e/4d/4^c/d B3- | B3/2b3/2 g>^de | c>e^g a2 b/4a/4=g/4f/4 | g>ab e>f^d | e>BG E2 B | %56
 B>^GA de/d/c/B/ | c>ed e>gf | ga/g/f/e/ a>bg | g/4f/4g/4f/4g/4f/4e/f d3- | d2 e/4f/4g/4a/4 b>gd | %61
 e2 f/4g/4a/4b/4 c'>ae | f>dd' g>af | g3- g3 |] %64
V:2
 G,/4F,/4G,3/2 G,, G,/4F,/4G,/- G,2- | G,3 G,/4F,/4G,/4F,/4G,/4F,/4E,/D, | E,2 D ^C2 A, | %3
 D3- D>EC | B,>CA, G,>A,B, | C>DB, A,>B,C | D>CB, C2 D | G,>F,G, D,>A,C | B,/4C/4B,A,/B, E,>B,D | %9
 D/4^C/4D/4C/4D/4C/4B,/A, D>CD | G,>B,D[K:treble] G3- | GA/G/F/E/ F>GA |[K:bass] D>A,F, D,>E,F, | %13
 G,>A,F, E,>F,G, | A,>G,F, B,>G,A, | D,>F,A, D3 | G,/4F,/4G,3/2 G,, G,/4F,/4G,/- G,2- | %17
 G,3 G,/4F,/4G,/4F,/4G,/4F,/4E,/D, | E,2 D ^C2 A, | D3- D>EC | B,>CA, G,>A,B, | C>DB, A,>B,C | %22
 D>CB, C2 D | G,>F,G, D,>A,C | B,/4C/4B,A,/B, E,>B,D | D/4^C/4D/4C/4D/4C/4B,/A, D>CD | %26
 G,>B,D[K:treble] G3- | GA/G/F/E/ F>GA |[K:bass] D>A,F, D,>E,F, | G,>A,F, E,>F,G, | %30
 A,>G,F, B,>G,A, | D,>F,A, D3 | D2 D, D2 C | C/4B,/4C/4B,/4C/4B,/4A,/B, G,>A,B, | C>DB, A,>B,C | %35
 B,2 B,, B,>A,B, | G,2 A,/4B,/4^C/4^D/4 E>B,G, | A,2 B,/4C/4D/4E/4 =F>E^D | E2 G, C>A,B, | %39
 E,3- E,>ED | D/4C/4D/4C/4D/4C/4B,/C ^G,>B,E, | A,>CB, C>B,A, | B,>ED D/4^C/4D/4C/4D/4C/4B,/C | %43
 D3- D>EC | B,>CA, G,>A,B, | C>DB, A,>B,C | D>CB, E>CD | G,>D,B,, G,,3 | D2 D, D2 C | %49
 C/4B,/4C/4B,/4C/4B,/4A,/B, G,>A,B, | C>DB, A,>B,C | B,2 B,, B,>A,B, | %52
 G,2 A,/4B,/4^C/4^D/4 E>B,G, | A,2 B,/4C/4D/4E/4 =F>E^D | E2 G, C>A,B, | E,3- E,>ED | %56
 D/4C/4D/4C/4D/4C/4B,/C ^G,>B,E, | A,>CB, C>B,A, | B,>ED D/4^C/4D/4C/4D/4C/4B,/C | D3- D>EC | %60
 B,>CA, G,>A,B, | C>DB, A,>B,C | D>CB, E>CD | G,>D,B,, G,,3 |] %64

